X:510
T:
R:vals
S:Uppt. såsom klockaren Laugren i Alva spelat den för samlaren.
O:Gotland, Alva
M:3/4
L:1/8
K:F
a2 aa aa|f4 c2|a2 aa aa|f3 ABc|d3 c=Bc|a2 z2 g2|f2 z2 f2|e4 c2|
b2 bbbb|g4 c2|b2 bbbb|g3 efg|a3 gfe|d3 c=Bc|d2 z2 d2|c6|
a2 aaaa|f4 c2|a2 aaaa|f4 ^c2|d2 dddd|B4 G2|d2 dddd|B4 d2|
c3 =B c2|a3 g f2|g3 ^f g2|b3 a g2|f2 cf a2|f2 cf a2|f2 ff f2|f6:|
K:Bb
|:f2 =e2 f2|d6|d2 ^c2 d2|B6|B2 A2 B2|c6|d6|d2 =e2 f2|
f2 =e2 f2|d6|d2 ^c2 d2|B6|g6|f6|f2 g2 a2|b6:|

